static/img/kroki/b9a8411a27399259741355aa47c4088c.svg

<?xml version="1.0" encoding="us-ascii" standalone="no"?><svg xmlns="http://www.w3.org/2000/svg" xmlns:xlink="http://www.w3.org/1999/xlink" contentStyleType="text/css" height="252px" preserveAspectRatio="none" style="width:507px;height:252px;" version="1.1" viewBox="0 0 507 252" width="507px" zoomAndPan="magnify"><defs/><g><!--class azure_machine_learning_workspace--><g id="elem_azure_machine_learning_workspace"><rect codeLine="23" fill="#3D176E" height="39.7891" id="azure_machine_learning_workspace" rx="2.5" ry="2.5" style="stroke:#000D19;stroke-width:0.5;" width="344" x="81.5" y="7"/><ellipse cx="96.5" cy="26.8945" fill="#ADD1B2" rx="11" ry="11" style="stroke:#181818;stroke-width:1.0;"/><path d="M99.4688,32.5352 Q98.8906,32.832 98.25,32.9727 Q97.6094,33.1289 96.9063,33.1289 Q94.4063,33.1289 93.0781,31.4883 Q91.7656,29.832 91.7656,26.707 Q91.7656,23.582 93.0781,21.9258 Q94.4063,20.2695 96.9063,20.2695 Q97.6094,20.2695 98.25,20.4258 Q98.9063,20.582 99.4688,20.8789 L99.4688,23.5977 Q98.8438,23.0195 98.25,22.7539 Q97.6563,22.4727 97.0313,22.4727 Q95.6875,22.4727 95,23.5508 Q94.3125,24.6133 94.3125,26.707 Q94.3125,28.8008 95,29.8789 Q95.6875,30.9414 97.0313,30.9414 Q97.6563,30.9414 98.25,30.6758 Q98.8438,30.3945 99.4688,29.8164 L99.4688,32.5352 Z " fill="#000000"/><text fill="#D9B8FF" font-family="Helvetica" font-size="17" lengthAdjust="spacing" textLength="302" x="115.5" y="32.7798">azure_machine_learning_workspace</text></g><!--class azure_machine_learning_workspace_model_container--><g id="elem_azure_machine_learning_workspace_model_container"><rect codeLine="26" fill="#3D176E" height="39.7891" id="azure_machine_learning_workspace_model_container" rx="2.5" ry="2.5" style="stroke:#000D19;stroke-width:0.5;" width="493" x="7" y="106.79"/><ellipse cx="22" cy="126.6845" fill="#ADD1B2" rx="11" ry="11" style="stroke:#181818;stroke-width:1.0;"/><path d="M24.9688,132.3252 Q24.3906,132.622 23.75,132.7627 Q23.1094,132.9189 22.4063,132.9189 Q19.9063,132.9189 18.5781,131.2783 Q17.2656,129.622 17.2656,126.497 Q17.2656,123.372 18.5781,121.7158 Q19.9063,120.0595 22.4063,120.0595 Q23.1094,120.0595 23.75,120.2158 Q24.4063,120.372 24.9688,120.6689 L24.9688,123.3877 Q24.3438,122.8095 23.75,122.5439 Q23.1563,122.2627 22.5313,122.2627 Q21.1875,122.2627 20.5,123.3408 Q19.8125,124.4033 19.8125,126.497 Q19.8125,128.5908 20.5,129.6689 Q21.1875,130.7314 22.5313,130.7314 Q23.1563,130.7314 23.75,130.4658 Q24.3438,130.1845 24.9688,129.6064 L24.9688,132.3252 Z " fill="#000000"/><text fill="#D9B8FF" font-family="Helvetica" font-size="17" lengthAdjust="spacing" textLength="451" x="41" y="132.5698">azure_machine_learning_workspace_model_container</text></g><!--class azure_machine_learning_workspace_model_version--><g id="elem_azure_machine_learning_workspace_model_version"><rect codeLine="29" fill="#3D176E" height="39.7891" id="azure_machine_learning_workspace_model_version" rx="2.5" ry="2.5" style="stroke:#000D19;stroke-width:0.5;" width="475" x="16" y="206.58"/><ellipse cx="31" cy="226.4745" fill="#ADD1B2" rx="11" ry="11" style="stroke:#181818;stroke-width:1.0;"/><path d="M33.9688,232.1152 Q33.3906,232.412 32.75,232.5527 Q32.1094,232.7089 31.4063,232.7089 Q28.9063,232.7089 27.5781,231.0683 Q26.2656,229.412 26.2656,226.287 Q26.2656,223.162 27.5781,221.5058 Q28.9063,219.8495 31.4063,219.8495 Q32.1094,219.8495 32.75,220.0058 Q33.4063,220.162 33.9688,220.4589 L33.9688,223.1777 Q33.3438,222.5995 32.75,222.3339 Q32.1563,222.0527 31.5313,222.0527 Q30.1875,222.0527 29.5,223.1308 Q28.8125,224.1933 28.8125,226.287 Q28.8125,228.3808 29.5,229.4589 Q30.1875,230.5214 31.5313,230.5214 Q32.1563,230.5214 32.75,230.2558 Q33.3438,229.9745 33.9688,229.3964 L33.9688,232.1152 Z " fill="#000000"/><text fill="#D9B8FF" font-family="Helvetica" font-size="17" lengthAdjust="spacing" textLength="433" x="50" y="232.3598">azure_machine_learning_workspace_model_version</text></g><!--link azure_machine_learning_workspace to azure_machine_learning_workspace_model_container--><g id="link_azure_machine_learning_workspace_azure_machine_learning_workspace_model_container"><path codeLine="32" d="M253.5,47.22 C253.5,64.36 253.5,83.27 253.5,100.41 " fill="none" id="azure_machine_learning_workspace-to-azure_machine_learning_workspace_model_container" style="stroke:#1A83AF;stroke-width:2.0;"/><polygon fill="#1A83AF" points="253.5,106.41,257.5,97.41,253.5,101.41,249.5,97.41,253.5,106.41" style="stroke:#1A83AF;stroke-width:2.0;"/></g><!--link azure_machine_learning_workspace_model_container to azure_machine_learning_workspace_model_version--><g id="link_azure_machine_learning_workspace_model_container_azure_machine_learning_workspace_model_version"><path codeLine="33" d="M253.5,147.01 C253.5,164.15 253.5,183.06 253.5,200.2 " fill="none" id="azure_machine_learning_workspace_model_container-to-azure_machine_learning_workspace_model_version" style="stroke:#1A83AF;stroke-width:2.0;"/><polygon fill="#1A83AF" points="253.5,206.2,257.5,197.2,253.5,201.2,249.5,197.2,253.5,206.2" style="stroke:#1A83AF;stroke-width:2.0;"/></g><!--SRC=[dPFHJy8m4CRVzrSquPc4INJmOZ99YBuG8xuPinpjbJLRMtBj863ytzq4JTq4nDUxtzttVPSsLm8PwfNVCerwWUGYLoYp0WBDKYAxcTZI4kj92NAOj9jJQ_nPO0OQsJsMQ_IAGvjupXKl33h7heBM7V1YIROoOh_U4nXNjz3uW9gKu5pgFQb5vJ4m8yQBaPHjihsqDnHnSeCTp990EY23mK34upPoLkfaxczYhdR8ul1eC-knOxCZyKcTTDaGWSbEqA_-KO-F88GoItOTr9xsdiWW_QZFSn1sqz0IIXVAE8-4rczNEEcaml58oEHN-E4O7F7cT0ns5M6cWUVAO5OYaAdLiusbedua7DbR5Bt_aSsq5LXcl3u6g2RPvRFh-jieQ_QJPxtrNtfnEXgcqzV-xSNkeelZ_4Vk42Zw0000]--></g></svg>

<svg xmlns="http://www.w3.org/2000/svg" width="507" height="252" viewBox="0 0 507 252"><rect width="344" height="39.789" x="81.5" y="7" fill="#3D176E" rx="2.5" ry="2.5" style="stroke:#000d19;stroke-width:.5"/><circle cx="96.5" cy="26.895" r="11" fill="#ADD1B2" style="stroke:#181818;stroke-width:1"/><path d="M99.469 32.535q-.578.297-1.219.438-.64.156-1.344.156-2.5 0-3.828-1.64-1.312-1.657-1.312-4.782t1.312-4.781q1.328-1.656 3.828-1.656.703 0 1.344.156.656.156 1.219.453v2.719q-.625-.578-1.219-.844-.594-.281-1.219-.281-1.344 0-2.031 1.078-.687 1.062-.687 3.156T95 29.879q.688 1.062 2.031 1.062.625 0 1.219-.265.594-.281 1.219-.86z"/><text x="115.5" y="32.78" fill="#D9B8FF" font-family="Helvetica" font-size="17" textLength="302">azure_machine_learning_workspace</text><rect width="493" height="39.789" x="7" y="106.79" fill="#3D176E" rx="2.5" ry="2.5" style="stroke:#000d19;stroke-width:.5"/><circle cx="22" cy="126.684" r="11" fill="#ADD1B2" style="stroke:#181818;stroke-width:1"/><path d="M24.969 132.325q-.578.297-1.219.438-.64.156-1.344.156-2.5 0-3.828-1.64-1.312-1.657-1.312-4.782t1.312-4.781q1.328-1.656 3.828-1.656.703 0 1.344.156.656.156 1.219.453v2.719q-.625-.579-1.219-.844-.594-.281-1.219-.281-1.343 0-2.031 1.078-.687 1.062-.687 3.156t.687 3.172q.688 1.062 2.031 1.062.625 0 1.219-.265.594-.281 1.219-.86z"/><text x="41" y="132.57" fill="#D9B8FF" font-family="Helvetica" font-size="17" textLength="451">azure_machine_learning_workspace_model_container</text><rect width="475" height="39.789" x="16" y="206.58" fill="#3D176E" rx="2.5" ry="2.5" style="stroke:#000d19;stroke-width:.5"/><circle cx="31" cy="226.475" r="11" fill="#ADD1B2" style="stroke:#181818;stroke-width:1"/><path d="M33.969 232.115q-.578.297-1.219.438-.64.156-1.344.156-2.5 0-3.828-1.64-1.312-1.657-1.312-4.782t1.312-4.781q1.328-1.656 3.828-1.656.703 0 1.344.156.656.156 1.219.453v2.719q-.625-.578-1.219-.844-.594-.281-1.219-.281-1.343 0-2.031 1.078-.687 1.062-.687 3.156t.687 3.172q.688 1.062 2.031 1.062.625 0 1.219-.265.594-.281 1.219-.86z"/><text x="50" y="232.36" fill="#D9B8FF" font-family="Helvetica" font-size="17" textLength="433">azure_machine_learning_workspace_model_version</text><path fill="none" d="M253.5 47.22v53.19" style="stroke:#1a83af;stroke-width:2"/><path fill="#1A83AF" d="m253.5 106.41 4-9-4 4-4-4z" style="stroke:#1a83af;stroke-width:2"/><path fill="none" d="M253.5 147.01v53.19" style="stroke:#1a83af;stroke-width:2"/><path fill="#1A83AF" d="m253.5 206.2 4-9-4 4-4-4z" style="stroke:#1a83af;stroke-width:2"/></svg>
